src/components/OnePoint.svg

<?xml version="1.0" encoding="UTF-8" standalone="no"?><!DOCTYPE svg PUBLIC "-//W3C//DTD SVG 1.1//EN" "http://www.w3.org/Graphics/SVG/1.1/DTD/svg11.dtd"><svg width="100%" height="100%" viewBox="0 0 1667 1273" version="1.1" xmlns="http://www.w3.org/2000/svg" xmlns:xlink="http://www.w3.org/1999/xlink" xml:space="preserve" style="fill-rule:evenodd;clip-rule:evenodd;stroke-linejoin:round;stroke-miterlimit:1.41421;"><g><path d="M1115.56,65c-18.889,20.556 -178.334,221.667 -237.778,300.556l-47.222,62.222l-416.112,0c-228.888,0 -415,1.111 -413.333,2.778c1.111,1.666 190.556,2.777 420,2.777c325.556,0 417.778,1.667 418.333,7.223c0.556,3.333 0.556,10.555 0,15c0,5.555 0.556,6.111 2.778,1.111c1.667,-3.889 23.334,27.222 47.778,69.444c25,42.222 53.333,90 63.333,106.111l18.889,28.889l-0.555,129.445c0,70.555 -1.111,126.111 -2.223,123.333c-1.111,-3.333 -28.888,-105 -61.666,-227.222c-33.334,-121.667 -61.111,-218.889 -61.667,-216.111c-2.778,8.333 190,708.888 208.889,758.888l6.111,15l450,0l0,-452.777l-123.889,-63.334c-67.778,-35 -201.666,-106.666 -297.222,-160c-187.778,-103.889 -217.778,-120 -217.778,-116.111c0,2.222 282.222,159.445 347.222,193.889c15.556,8.333 10.556,8.889 -89.444,9.445l-106.667,0l-83.889,-102.223c-46.111,-56.666 -86.111,-103.889 -89.444,-106.111c-2.778,-1.666 -5.556,-5.555 -5.556,-8.889c0,-2.777 159.445,-5.555 412.778,-6.111l412.222,-1.666l-411.111,-2.778c-226.111,-1.667 -407.777,-3.334 -403.889,-4.445c3.889,-0.555 5.556,-3.889 3.889,-6.666c-2.222,-3.334 -6.111,-3.889 -9.444,-2.223c-3.889,2.778 -4.445,1.112 -2.222,-2.777c3.333,-5 6.666,-5 13.889,1.666c10.555,9.445 20,12.223 15,4.445c-1.667,-2.778 17.777,-13.889 43.333,-25.556c43.333,-19.444 48.333,-20.555 98.333,-19.444c49.445,1.111 61.111,-1.111 201.111,-39.445l148.334,-40.555l0,-242.778l-118.334,0l-118.333,0l-14.444,15Zm245.555,104.444l0,113.889l-113.889,0l-113.889,0l0,-227.777l227.778,0l0,113.888Zm-233.333,4.445l0,112.778l-75.556,35.555c-41.666,19.445 -73.333,36.667 -70.555,37.222c2.777,1.112 36.666,-13.333 74.444,-31.666l68.889,-33.334l102.778,0.556l102.778,0l-130.556,35.556c-106.667,29.444 -138.333,35.555 -173.333,36.111c-61.667,0 -60,1.666 -60,-56.111l0,-49.445l79.444,-100c43.333,-54.444 79.445,-99.444 80.556,-99.444c0.555,-0.556 1.111,50 1.111,112.222Zm-166.667,127.222l0,35l-35,23.889c-37.778,25.556 -67.222,48.889 -53.889,42.222c4.445,-2.222 25,-16.111 45.556,-31.111c20.555,-14.444 38.889,-26.667 40.555,-26.667c1.667,0 2.778,5 2.778,11.667c0,8.889 -10,16.111 -45.555,32.222c-56.667,26.111 -66.667,24.445 -42.223,-7.777c10,-13.334 33.334,-43.889 51.667,-68.334c18.333,-24.444 33.889,-45 35,-45c0.556,-0.555 1.111,15 1.111,33.889Zm-20.555,261.111l75.555,93.334l-21.111,0l-20.556,0l-49.444,-82.223c-27.222,-45 -52.778,-87.777 -57.778,-95.555c-12.778,-21.111 -7.778,-15 73.334,84.444Zm423.888,161.111l120.556,62.778l-210,1.667c-115.556,0.555 -212.222,-0.556 -214.444,-2.778c-2.223,-2.778 -21.667,-31.111 -43.334,-64.444l-39.444,-59.445l266.111,0l120.555,62.222Zm-346.111,12.223l37.223,57.222l-0.556,207.778l0,207.777l-38.889,-136.111l-38.333,-136.111l0,-129.444c0,-70.556 1.111,-128.889 1.666,-128.889c1.112,0 18.889,26.111 38.889,57.778Zm481.667,278.333l0,219.444l-219.444,0l-219.445,0l0,-438.889l438.889,0l0,219.445Z" style="fill-rule:nonzero;"/><path d="M1252.78,128.333c-51.667,36.667 -98.334,70.556 -102.778,75.556c-8.889,9.444 1.111,2.778 123.889,-83.889c65.555,-46.667 81.667,-59.444 75,-58.889c-1.111,0 -43.889,30.556 -96.111,67.222Z" style="fill-rule:nonzero;"/><path d="M1097.22,238.889c-20,14.444 -27.222,16.111 -69.444,17.778l-47.222,1.111l45.555,1.666l45.556,2.223l2.222,17.777c2.222,17.223 2.222,17.223 2.778,-3.333c0.555,-11.111 2.777,-20.555 5.555,-20.555c2.222,0 12.778,-7.778 23.334,-16.667c25,-21.111 20.555,-21.111 -8.334,0Z" style="fill-rule:nonzero;"/><path d="M1246.67,727.778c0,28.889 0.555,41.111 1.666,26.111c1.111,-14.445 1.111,-37.778 0,-52.778c-1.111,-14.444 -1.666,-2.222 -1.666,26.667Z" style="fill-rule:nonzero;"/><path d="M1007.22,937.222c8.334,1.111 20.556,1.111 27.778,0c6.667,-1.111 0,-2.222 -15.556,-2.222c-15,0 -21.111,1.111 -12.222,2.222Z" style="fill-rule:nonzero;"/><path d="M1245.56,867.778l-1.112,65l-87.222,2.222l-87.778,1.667l89.445,1.111l90,1.111l111.667,132.778c61.111,72.777 116.111,136.111 121.666,140c12.222,10 17.222,16.111 -118.889,-145l-110.555,-130.556l-3.334,-66.667l-2.777,-66.666l-1.111,65Z" style="fill-rule:nonzero;"/><path d="M953.889,395.556c-36.111,9.444 -64.445,17.777 -63.333,19.444c2.777,2.222 138.333,-30.556 142.222,-35c5,-4.444 -15,-0.556 -78.889,15.556Z" style="fill-rule:nonzero;"/><path d="M628.333,471.111c-77.222,17.222 -138.333,32.222 -135,33.333c5,1.667 278.334,-56.666 292.778,-62.222c21.111,-8.333 -36.667,2.222 -157.778,28.889Z" style="fill-rule:nonzero;"/><path d="M811.111,444.444c0,3.889 -1.667,6.112 -3.333,3.889c-2.222,-1.666 -26.111,11.667 -53.334,30l-49.444,33.334l-121.667,-1.111c-113.333,-1.112 -126.666,0 -202.222,15l-81.111,15.555l0,182.222l0,182.223l360.556,0l10.555,-29.445c6.111,-15.555 17.778,-46.667 26.111,-67.778c14.445,-37.777 15,-42.222 14.445,-152.777l-0.556,-113.889l37.778,-32.223c48.333,-40.555 70.555,-63.888 66.111,-68.888c-2.222,-1.667 -3.889,0 -3.889,3.888Zm-30.555,30.556c-58.889,52.778 -69.445,60.556 -69.445,48.333c0,-7.222 15,-20.555 46.111,-41.666c25,-17.223 46.667,-31.111 48.334,-31.111c1.666,0 -9.445,11.111 -25,24.444Zm-83.889,45c7.777,2.778 8.889,19.444 8.889,124.444l0,120.556l-22.223,57.778l-21.666,57.778l-0.556,-167.778l0,-167.778l17.222,-8.889c9.445,-5 15.556,-10.555 14.445,-12.222c-1.667,-1.667 -8.889,1.111 -16.111,6.111c-10.556,7.778 -33.334,8.889 -165.556,8.333l-152.778,-0.555l44.445,-10c34.444,-7.778 71.666,-10 165,-10.556c66.111,-0.555 123.889,1.111 128.889,2.778Zm-41.111,202.222l0,177.778l-175,0l-175,0l0,-355.556l350,0l0,177.778Z" style="fill-rule:nonzero;"/><path d="M451.111,658.333l-1.111,111.111l-44.444,38.889c-25,21.667 -54.445,47.223 -65.556,56.667c-11.111,10 -18.889,18.333 -16.667,18.333c2.223,0 32.223,-25 66.667,-55.555l62.778,-55.556l194.444,-2.222l-95.555,-1.667l-96.111,-1.666l-1.667,-110l-1.111,-109.445l-1.667,111.111Z" style="fill-rule:nonzero;"/><path d="M811.111,481.667c-51.111,136.111 -94.444,258.889 -91.667,261.666c1.667,1.667 2.778,1.667 2.778,0.556c0,-1.667 23.889,-67.778 52.778,-146.667c28.889,-78.889 51.667,-144.444 50.556,-145.555c-1.112,-1.667 -7.778,12.222 -14.445,30Z" style="fill-rule:nonzero;"/></g></svg>

<svg width="100%" height="100%" viewBox="0 0 1667 1273" version="1.1" xmlns="http://www.w3.org/2000/svg" fill-rule="evenodd" clip-rule="evenodd" stroke-linejoin="round" stroke-miterlimit="1.414">
    <g id="onepointperspective">
        <g id="topCube">
            <path d="M1252.78,128.333C1201.11,165 1154.45,198.889 1150,203.889C1141.11,213.333 1151.11,206.667 1273.89,120C1339.45,73.333 1355.56,60.556 1348.89,61.111C1347.78,61.111 1305,91.667 1252.78,128.333L1252.78,128.333Z" style="fill-rule:nonzero;"/>
            <path d="M1097.22,238.889C1077.22,253.333 1070,255 1027.78,256.667L980.554,257.778L1026.11,259.444L1071.66,261.667L1073.89,279.444C1076.11,296.667 1076.11,296.667 1076.66,276.111C1077.22,265 1079.44,255.556 1082.22,255.556C1084.44,255.556 1095,247.778 1105.55,238.889C1130.55,217.778 1126.11,217.778 1097.22,238.889L1097.22,238.889Z" style="fill-rule:nonzero;"/>
            <path d="M953.889,395.556C917.778,405 889.444,413.333 890.556,415C893.333,417.222 1028.89,384.444 1032.78,380C1037.78,375.556 1017.78,379.444 953.889,395.556Z" style="fill-rule:nonzero;"/>
            <path d="M1115.56,65C1096.67,85.556 937.226,286.667 877.782,365.556L830.56,427.778C830.56,427.778 838.893,435 839.448,440.556C840.004,443.889 844.448,441.667 844.448,438.333C844.448,435.556 850.56,424.444 854.448,423.333C858.337,422.778 844.448,415.556 846.671,411.667C850.004,406.667 853.337,406.667 860.56,413.333C871.115,422.778 880.56,425.556 875.56,417.778C873.893,415 893.337,403.889 918.893,392.222C962.226,372.778 967.226,371.667 1017.23,372.778C1066.67,373.889 1078.34,371.667 1218.34,333.333L1366.67,292.778L1366.67,50L1248.34,50L1130,50L1115.56,65L1115.56,65ZM1361.12,169.444L1361.12,283.333L1247.23,283.333L1133.34,283.333L1133.34,55.556L1361.12,55.556L1361.12,169.444ZM1127.78,173.889L1127.78,286.667L1052.23,322.222C1010.56,341.667 978.893,358.889 981.671,359.444C984.448,360.556 1018.34,346.111 1056.12,327.778L1125,294.444L1227.78,295L1330.56,295L1200,330.556C1093.34,360 1061.67,366.111 1026.67,366.667C965.004,366.667 966.671,368.333 966.671,310.556L966.671,261.111L1046.12,161.111C1089.45,106.667 1125.56,61.667 1126.67,61.667C1127.23,61.111 1127.78,111.667 1127.78,173.889L1127.78,173.889ZM961.115,301.111L961.115,336.111L926.115,360C888.337,385.556 858.893,408.889 872.226,402.222C876.671,400 897.226,386.111 917.782,371.111C938.337,356.667 956.671,344.444 958.337,344.444C960.004,344.444 961.115,349.444 961.115,356.111C961.115,365 951.115,372.222 915.56,388.333C858.893,414.444 848.893,412.778 873.337,380.556C883.337,367.222 906.671,336.667 925.004,312.222C943.337,287.778 958.893,267.222 960.004,267.222C960.56,266.667 961.115,282.222 961.115,301.111L961.115,301.111Z" style="fill-rule:nonzero;"/>
        </g>
        <g id="rightCube">
            <path d="M1246.67,727.778C1246.67,756.667 1247.23,768.889 1248.34,753.889C1249.45,739.444 1249.45,716.111 1248.34,701.111C1247.23,686.667 1246.67,698.889 1246.67,727.778Z" style="fill-rule:nonzero;"/>
            <path d="M1007.22,937.222C1015.55,938.333 1027.78,938.333 1035,937.222C1041.66,936.111 1035,935 1019.44,935C1004.44,935 998.331,936.111 1007.22,937.222Z" style="fill-rule:nonzero;"/>
            <path d="M1245.56,867.778L1244.45,932.778L1157.23,935L1069.45,936.667L1158.89,937.778L1248.89,938.889L1360.56,1071.67C1421.67,1144.44 1476.67,1207.78 1482.23,1211.67C1494.45,1221.67 1499.45,1227.78 1363.34,1066.67L1252.78,936.111L1249.45,869.444L1246.67,802.778L1245.56,867.778L1245.56,867.778Z" style="fill-rule:nonzero;"/>
            <path d="M854.448,423.333C858.337,422.778 830.56,427.778 830.56,427.778C830.56,427.778 838.893,435 839.448,440.556C840.004,443.889 840.004,451.111 839.448,455.556C839.448,461.111 840.004,461.667 842.226,456.667C843.893,452.778 865.56,483.889 890.004,526.111C915.004,568.333 943.337,616.111 953.337,632.222L972.226,661.111L971.671,790.556C971.671,861.111 970.56,916.667 969.448,913.889C968.337,910.556 940.56,808.889 907.782,686.667C874.448,565 846.671,467.778 846.115,470.556C843.337,478.889 1036.12,1179.44 1055,1229.44L1061.12,1244.44L1511.12,1244.44L1511.12,791.667L1387.23,728.333C1319.45,693.333 1185.56,621.667 1090,568.333C902.226,464.444 872.226,448.333 872.226,452.222C872.226,454.444 1154.45,611.667 1219.45,646.111C1235,654.444 1230,655 1130,655.556L1023.34,655.556L939.448,553.333C893.337,496.667 853.337,449.444 850.004,447.222C847.226,445.556 844.448,441.667 844.448,438.333C844.448,435.556 850.56,424.444 854.448,423.333ZM940.56,562.222L1016.12,655.556L995.004,655.556L974.448,655.556L925.004,573.333C897.782,528.333 872.226,485.556 867.226,477.778C854.448,456.667 859.448,462.778 940.56,562.222L940.56,562.222ZM1364.45,723.333L1485,786.111L1275,787.778C1159.45,788.333 1062.78,787.222 1060.56,785C1058.34,782.222 1038.89,753.889 1017.23,720.556L977.782,661.111L1243.89,661.111L1364.45,723.333ZM1018.34,735.556L1055.56,792.778L1055,1000.56L1055,1208.33L1016.12,1072.22L977.782,936.111L977.782,806.667C977.782,736.111 978.893,677.778 979.448,677.778C980.56,677.778 998.337,703.889 1018.34,735.556L1018.34,735.556ZM1500,1013.89L1500,1233.33L1280.56,1233.33L1061.12,1233.33L1061.12,794.444L1500,794.444L1500,1013.89Z" style="fill-rule:nonzero;"/>
        </g>
        <g id="leftCube">
            <path d="M628.333,471.111C551.111,488.333 490,503.333 493.333,504.444C498.333,506.111 771.667,447.778 786.111,442.222C807.222,433.889 749.444,444.444 628.333,471.111Z" style="fill-rule:nonzero;"/>
            <path d="M451.111,658.333L450,769.444L405.556,808.333C380.556,830 351.111,855.556 340,865C328.889,875 321.111,883.333 323.333,883.333C325.556,883.333 355.556,858.333 390,827.778L452.778,772.222L647.222,770L551.667,768.333L455.556,766.667L453.889,656.667L452.778,547.222L451.111,658.333Z" style="fill-rule:nonzero;"/>
            <path d="M811.111,444.444C811.111,448.333 809.444,450.556 807.778,448.333C805.556,446.667 781.667,460 754.444,478.333L705,511.667L583.333,510.556C470,509.444 456.667,510.556 381.111,525.556L300,541.111L300,905.556L660.556,905.556L671.111,876.111C677.222,860.556 688.889,829.444 697.222,808.333C711.667,770.556 712.222,766.111 711.667,655.556L711.111,541.667L748.889,509.444C797.222,468.889 819.444,445.556 815,440.556C812.778,438.889 811.111,440.556 811.111,444.444ZM780.556,475C721.667,527.778 711.111,535.556 711.111,523.333C711.111,516.111 726.111,502.778 757.222,481.667C782.222,464.444 803.889,450.556 805.556,450.556C807.222,450.556 796.111,461.667 780.556,475ZM696.667,520C704.444,522.778 705.556,539.444 705.556,644.444L705.556,765L683.333,822.778L661.667,880.556L661.111,712.778L661.111,545L678.333,536.111C687.778,531.111 693.889,525.556 692.778,523.889C691.111,522.222 683.889,525 676.667,530C666.111,537.778 643.333,538.889 511.111,538.333L358.333,537.778L402.778,527.778C437.222,520 474.444,517.778 567.778,517.222C633.889,516.667 691.667,518.333 696.667,520ZM655.556,722.222L655.556,900L480.556,900L305.556,900L305.556,544.444L655.556,544.444L655.556,722.222Z" style="fill-rule:nonzero;"/>
            <path d="M811.111,481.667C760,617.778 716.667,740.556 719.444,743.333C721.111,745 722.222,745 722.222,743.889C722.222,742.222 746.111,676.111 775,597.222C803.889,518.333 826.667,452.778 825.556,451.667C824.444,450 817.778,463.889 811.111,481.667Z" style="fill-rule:nonzero;"/>
        </g>
        <path id="horizon" d="M1258.34,427.778C1032.23,426.111 830.56,427.778 830.56,427.778L414.448,427.778C185.56,427.778 -0.552,428.889 1.115,430.556C2.226,432.222 191.671,433.333 421.115,433.333C746.671,433.333 1003.89,432.778 1257.23,432.222L1669.45,430.556L1258.34,427.778Z" style="fill-rule:nonzero;"/>
    </g>
</svg>
